; generated by PrusaSlicer 2.7.1+linux-x64-GTK3 on 2024-03-17 at 08:51:42 UTC

; 

; external perimeters extrusion width = 0.42mm
; perimeters extrusion width = 0.44mm
; infill extrusion width = 0.44mm
; solid infill extrusion width = 0.44mm
; top infill extrusion width = 0.40mm
; support material extrusion width = 0.36mm
; first layer extrusion width = 0.42mm

M201 X500 Y500 Z100 E5000 ; sets maximum accelerations, mm/sec^2
M203 X500 Y500 Z10 E60 ; sets maximum feedrates, mm / sec
M204 S500 T1000 ; sets acceleration (S) and retract acceleration (R), mm/sec^2
M205 X8.00 Y8.00 Z0.40 E5.00 ; sets the jerk limits, mm/sec
M205 S0 T0 ; sets the minimum extruding and travel feed rate, mm/sec

; printing object fan-120mm.stl id:0 copy 0
; stop printing object fan-120mm.stl id:0 copy 0

;TYPE:Custom
G90 ; use absolute coordinates
M83 ; extruder relative mode
G28 ; home all axis
G1 Z25 F240
G1 X32.0 Y10 F3000
M140 S75 ; set final bed temp
M105 ; temperature report
M190 S75 ; wait for bed temp to stabilize
M104 S250 ; set final nozzle temp
M105 ; temperature report
M109 S250 ; wait for nozzle temp to stabilize
G1 Z0.28 F240
G92 E0
G1 X32.0 Y140 E10 F1500 ; prime the nozzle
G1 X32.3 Y140 F5000
G92 E0
G1 X32.3 Y10 E10 F1200 ; prime the nozzle
G92 E0
G21 ; set units to millimeters
G90 ; use absolute coordinates
M83 ; use relative distances for extrusion
; Filament gcode
M107
;LAYER_CHANGE
;Z:0.2
;HEIGHT:0.2
;BEFORE_LAYER_CHANGE
G92 E0
;0.2


G1 E-6 F3600
G1 Z.2 F9000
;AFTER_LAYER_CHANGE
;0.2
G1 X85.373 Y84.47
G1 Z.2
G1 E6 F2400
M204 S500
;TYPE:Skirt/Brim
;WIDTH:0.42
G1 F1200
G1 X86.215 Y83.756 E.03461
G1 X87.466 Y83.089 E.04445
G1 X88.252 Y82.845 E.0258
G1 X89.553 Y82.686 E.0411
G1 X220.278 Y82.723 E4.09879
G1 X221.105 Y82.876 E.02637
G1 X222.251 Y83.301 E.03832
G1 X223.136 Y83.842 E.03252
G1 X223.859 Y84.47 E.03003
G1 X224.479 Y85.216 E.03041
G1 X225.115 Y86.385 E.04173
G1 X225.446 Y87.493 E.03626
G1 X225.549 Y88.382 E.02806
G1 X225.555 Y220.623 E4.14632
G1 X225.446 Y221.754 E.03563
G1 X225.115 Y222.862 E.03626
G1 X224.516 Y223.976 E.03966
G1 X223.859 Y224.777 E.03248
G1 X223.048 Y225.468 E.03341
G1 X221.766 Y226.158 E.04565
G1 X220.98 Y226.402 E.0258
G1 X219.679 Y226.561 E.0411
G1 X89.553 Y226.561 E4.08001
G1 X88.252 Y226.402 E.0411
G1 X87.466 Y226.158 E.0258
G1 X86.654 Y225.77 E.02822
G1 X85.509 Y224.911 E.04488
G1 X84.753 Y224.031 E.03638
G1 X84.117 Y222.862 E.04173
G1 X83.786 Y221.754 E.03626
G1 X83.677 Y220.623 E.03563
G1 X83.677 Y88.623 E4.13877
G1 X83.751 Y87.692 E.02928
G1 X84.117 Y86.385 E.04256
G1 X84.695 Y85.301 E.03852
G1 X85.335 Y84.516 E.03176
G1 X85.626 Y84.753 F9000
G1 F1200
G1 X85.639 Y84.737 E.00065
G1 X86.435 Y84.063 E.0327
G1 X87.598 Y83.442 E.04134
G1 X88.342 Y83.211 E.02443
G1 X89.553 Y83.063 E.03825
G1 X220.231 Y83.097 E4.09732
G1 X221.014 Y83.242 E.02497
G1 X222.132 Y83.664 E.03747
G1 X222.917 Y84.149 E.02893
G1 X223.855 Y85.022 E.04018
G1 X224.515 Y85.993 E.03681
G1 X224.809 Y86.636 E.02217
G1 X225.081 Y87.591 E.03113
G1 X225.178 Y88.623 E.0325
G1 X225.178 Y220.623 E4.13877
G1 X225.076 Y221.684 E.03342
G1 X224.765 Y222.723 E.03401
G1 X224.208 Y223.758 E.03685
G1 X223.592 Y224.51 E.03048
G1 X222.826 Y225.163 E.03156
G1 X221.633 Y225.805 E.04248
G1 X220.89 Y226.036 E.0244
G1 X219.679 Y226.184 E.03825
G1 X89.553 Y226.184 E4.08001
G1 X88.342 Y226.036 E.03825
G1 X87.598 Y225.805 E.02443
G1 X86.839 Y225.442 E.02638
G1 X85.774 Y224.643 E.04175
G1 X85.059 Y223.81 E.03442
G1 X84.467 Y222.723 E.03881
G1 X84.156 Y221.684 E.03401
G1 X84.054 Y220.623 E.03342
G1 X84.054 Y88.623 E4.13877
G1 X84.124 Y87.747 E.02755
G1 X84.467 Y86.524 E.03983
G1 X85.005 Y85.516 E.03583
G1 X85.588 Y84.8 E.02895
G1 X85.879 Y85.036 F9000
G1 F1200
G1 X85.905 Y85.004 E.00129
G1 X86.654 Y84.37 E.03077
G1 X87.73 Y83.795 E.03825
G1 X88.433 Y83.577 E.02308
G1 X89.553 Y83.44 E.03538
G1 X220.185 Y83.471 E4.09587
G1 X220.923 Y83.608 E.02353
G1 X221.962 Y84 E.03482
G1 X222.697 Y84.455 E.0271
G1 X223.567 Y85.265 E.03727
G1 X224.181 Y86.167 E.03421
G1 X224.459 Y86.775 E.02096
G1 X224.71 Y87.66 E.02884
G1 X224.801 Y88.623 E.03033
G1 X224.801 Y220.623 E4.13877
G1 X224.705 Y221.614 E.03122
G1 X224.414 Y222.584 E.03175
G1 X223.9 Y223.541 E.03406
G1 X223.326 Y224.243 E.02843
G1 X222.605 Y224.858 E.02971
G1 X221.501 Y225.452 E.03931
G1 X220.799 Y225.67 E.02305
G1 X219.679 Y225.807 E.03538
G1 X89.553 Y225.807 E4.08001
G1 X88.433 Y225.67 E.03538
G1 X87.731 Y225.452 E.02305
G1 X87.025 Y225.114 E.02454
G1 X86.039 Y224.374 E.03865
G1 X85.365 Y223.59 E.03242
G1 X84.817 Y222.584 E.03592
G1 X84.527 Y221.614 E.03174
G1 X84.431 Y220.623 E.03122
G1 X84.431 Y88.623 E4.13877
G1 X84.497 Y87.803 E.02579
G1 X84.818 Y86.663 E.03713
G1 X85.314 Y85.731 E.0331
G1 X85.841 Y85.083 E.02619
G1 X86.133 Y85.319 F9000
G1 F1200
G1 X86.172 Y85.271 E.00194
G1 X86.874 Y84.676 E.02885
G1 X87.863 Y84.148 E.03515
G1 X88.524 Y83.943 E.0217
G1 X89.553 Y83.817 E.0325
G1 X220.139 Y83.845 E4.09443
G1 X220.833 Y83.974 E.02213
G1 X221.793 Y84.337 E.03218
G1 X222.478 Y84.762 E.02528
G1 X223.279 Y85.508 E.03432
G1 X223.846 Y86.341 E.03159
G1 X224.108 Y86.914 E.01976
G1 X224.34 Y87.73 E.0266
G1 X224.424 Y88.623 E.02812
G1 X224.424 Y220.623 E4.13877
G1 X224.335 Y221.544 E.02901
G1 X224.064 Y222.445 E.0295
G1 X223.592 Y223.324 E.03128
G1 X223.06 Y223.976 E.02638
G1 X222.383 Y224.553 E.02789
G1 X221.369 Y225.099 E.03611
G1 X220.708 Y225.304 E.0217
G1 X219.679 Y225.43 E.0325
G1 X89.553 Y225.43 E4.08001
G1 X88.524 Y225.304 E.0325
G1 X87.863 Y225.099 E.0217
G1 X87.21 Y224.785 E.02272
G1 X86.303 Y224.106 E.03552
G1 X85.671 Y223.369 E.03044
G1 X85.168 Y222.445 E.03299
G1 X84.897 Y221.544 E.0295
G1 X84.808 Y220.623 E.02901
G1 X84.808 Y88.623 E4.13877
G1 X84.939 Y87.51 E.03514
G1 X85.168 Y86.802 E.02333
G1 X85.624 Y85.946 E.03041
G1 X86.095 Y85.366 E.02343
G1 X86.384 Y85.604 F9000
G1 F1200
G1 X86.438 Y85.538 E.00267
G1 X87.093 Y84.983 E.02692
G1 X87.995 Y84.501 E.03207
G1 X88.615 Y84.309 E.02035
G1 X89.553 Y84.194 E.02963
G1 X220.093 Y84.22 E4.09299
G1 X220.742 Y84.34 E.02069
G1 X221.623 Y84.674 E.02954
G1 X222.258 Y85.069 E.02345
G1 X222.99 Y85.751 E.03137
G1 X223.428 Y86.364 E.02362
G1 X223.758 Y87.053 E.02395
G1 X223.969 Y87.8 E.02434
G1 X224.046 Y88.623 E.02592
G1 X224.046 Y220.623 E4.13877
G1 X223.964 Y221.474 E.02681
G1 X223.713 Y222.306 E.02725
G1 X223.255 Y223.149 E.03008
G1 X222.794 Y223.709 E.02274
G1 X222.161 Y224.248 E.02607
G1 X221.237 Y224.746 E.03291
G1 X220.617 Y224.938 E.02035
G1 X219.679 Y225.053 E.02963
G1 X89.553 Y225.053 E4.08001
G1 X88.615 Y224.938 E.02963
G1 X87.995 Y224.746 E.02035
G1 X87.396 Y224.457 E.02085
G1 X86.568 Y223.837 E.03243
G1 X85.977 Y223.149 E.02844
G1 X85.518 Y222.306 E.0301
G1 X85.268 Y221.474 E.02724
G1 X85.185 Y220.623 E.02681
G1 X85.185 Y88.623 E4.13877
G1 X85.305 Y87.6 E.0323
G1 X85.518 Y86.941 E.02171
G1 X85.977 Y86.098 E.0301
G1 X86.346 Y85.65 E.0182
; printing object fan-120mm.stl id:0 copy 0
G1 E-4.2 F3600
;WIPE_START
G1 F7200
G1 X86.384 Y85.604 E-.02834
G1 X86.438 Y85.538 E-.04051
G1 X87.093 Y84.983 E-.4078
G1 X87.995 Y84.501 E-.48579
G1 X88.615 Y84.309 E-.3083
G1 X89.553 Y84.194 E-.44889
G1 X89.722 Y84.194 E-.08037
;WIPE_END
G1 X90.433 Y89.441 F9000
G1 E6 F2400
;TYPE:Perimeter
;WIDTH:0.419999
G1 F1200
G1 X218.799 Y89.446 E4.02482
G1 X218.799 Y219.806 E4.08734
G1 X90.433 Y219.806 E4.02482
G1 X90.433 Y89.501 E4.08561
G1 X90.056 Y89.064 F9000
G1 F1200
G1 X219.176 Y89.069 E4.04846
G1 X219.176 Y220.183 E4.11098
G1 X90.056 Y220.183 E4.04846
G1 X90.056 Y89.124 E4.10926
G1 X89.679 Y88.687 F9000
G1 F1200
G1 X219.553 Y88.691 E4.0721
G1 X219.553 Y220.56 E4.13465
G1 X89.679 Y220.554 E4.0721
G1 X89.679 Y88.747 E4.13271
G1 X89.327 Y88.514 F9000
;TYPE:External perimeter
G1 F1200
G1 X89.47 Y88.352 E.00678
G1 X89.597 Y88.31 E.00419
G1 X219.647 Y88.314 E4.07762
G1 X219.873 Y88.461 E.00845
G1 X219.93 Y88.683 E.00719
G1 X219.93 Y220.561 E4.13494
G1 X219.904 Y220.733 E.00545
G1 X219.762 Y220.895 E.00675
G1 X219.635 Y220.937 E.00419
G1 X89.696 Y220.937 E4.07414
G1 X89.528 Y220.9 E.00539
G1 X89.357 Y220.785 E.00646
G1 X89.302 Y220.599 E.00608
G1 X89.302 Y88.686 E4.13603
G1 X89.318 Y88.573 E.00358
G1 E-4.2 F3600
;WIPE_START
G1 F7200
G1 X89.327 Y88.514 E-.02835
G1 X89.47 Y88.352 E-.10264
G1 X89.597 Y88.31 E-.06354
G1 X92.977 Y88.31 E-1.60547
;WIPE_END
G1 X124.023 Y100.781 F9000
G1 E6 F2400
;TYPE:Perimeter
G1 F1200
G1 X127.497 Y99.011 E.12225
G1 X131.144 Y97.446 E.12443
G1 X134.669 Y96.177 E.11747
G1 X138.296 Y95.123 E.11843
G1 X142.062 Y94.279 E.12101
G1 X145.956 Y93.662 E.12362
G1 X149.717 Y93.307 E.11845
G1 X153.574 Y93.183 E.121
G1 X157.515 Y93.307 E.12363
G1 X161.275 Y93.662 E.11842
G1 X165.088 Y94.263 E.12103
G1 X168.936 Y95.123 E.12363
G1 X172.642 Y96.203 E.12103
G1 X176.195 Y97.482 E.1184
G1 X179.739 Y99.013 E.12104
G1 X183.179 Y100.763 E.12101
G1 X186.572 Y102.77 E.1236
G1 X189.763 Y104.941 E.12101
G1 X192.748 Y107.256 E.11844
G1 X195.705 Y109.864 E.12362
G1 X198.433 Y112.595 E.12103
G1 X200.93 Y115.428 E.1184
G1 X203.347 Y118.543 E.12362
G1 X205.514 Y121.737 E.12102
G1 X207.437 Y124.988 E.11843
G1 X209.227 Y128.501 E.12362
G1 X210.757 Y132.044 E.121
G1 X212.037 Y135.598 E.11844
G1 X213.137 Y139.384 E.12362
G1 X213.976 Y143.151 E.12101
G1 X214.577 Y146.964 E.12103
G1 X214.938 Y150.807 E.12102
G1 X215.057 Y154.582 E.11842
G1 X214.933 Y158.523 E.12363
G1 X214.567 Y162.365 E.12101
G1 X213.961 Y166.177 E.12102
G1 X213.116 Y169.943 E.12102
G1 X212.062 Y173.57 E.11843
G1 X210.727 Y177.28 E.12363
G1 X209.191 Y180.821 E.12102
G1 X207.477 Y184.186 E.11841
G1 X205.47 Y187.58 E.12363
G1 X203.347 Y190.704 E.11843
G1 X200.983 Y193.755 E.12102
G1 X198.376 Y196.713 E.12363
G1 X195.705 Y199.383 E.11841
G1 X192.812 Y201.938 E.12102
G1 X189.763 Y204.306 E.12104
G1 X186.572 Y206.477 E.12101
G1 X183.179 Y208.484 E.1236
G1 X179.739 Y210.234 E.12101
G1 X176.272 Y211.734 E.11844
G1 X172.563 Y213.07 E.12361
G1 X168.855 Y214.144 E.12104
G1 X165.169 Y214.968 E.11842
G1 X161.275 Y215.585 E.12362
G1 X157.432 Y215.945 E.12102
G1 X153.574 Y216.064 E.12102
G1 X149.799 Y215.945 E.11842
G1 X145.956 Y215.585 E.12102
G1 X142.062 Y214.968 E.12362
G1 X138.296 Y214.124 E.12101
G1 X134.669 Y213.07 E.11843
G1 X130.96 Y211.734 E.12361
G1 X127.418 Y210.199 E.12104
G1 X124.053 Y208.484 E.11842
G1 X120.659 Y206.477 E.12363
G1 X117.468 Y204.306 E.12101
G1 X114.484 Y201.991 E.11842
G1 X111.587 Y199.44 E.12103
G1 X111.191 Y199.048 E.01747
G1 X108.799 Y196.652 E.10615
G1 X106.302 Y193.819 E.1184
G1 X103.885 Y190.704 E.12362
G1 X101.718 Y187.51 E.12102
G1 X99.755 Y184.186 E.12104
G1 X98.04 Y180.821 E.11842
G1 X96.505 Y177.28 E.12101
G1 X95.17 Y173.57 E.12363
G1 X94.095 Y169.863 E.12102
G1 X93.271 Y166.177 E.11842
G1 X92.655 Y162.283 E.12361
G1 X92.294 Y158.44 E.12102
G1 X92.175 Y154.665 E.11842
G1 X92.299 Y150.724 E.12363
G1 X92.665 Y146.882 E.12101
G1 X93.256 Y143.151 E.11844
G1 X94.116 Y139.304 E.1236
G1 X95.195 Y135.598 E.12102
G1 X96.505 Y131.967 E.12103
G1 X98.005 Y128.501 E.11841
G1 X99.755 Y125.061 E.12101
G1 X101.762 Y121.667 E.12363
G1 X103.885 Y118.543 E.11843
G1 X106.249 Y115.492 E.12102
G1 X108.856 Y112.534 E.12363
G1 X111.587 Y109.807 E.12101
G1 X114.42 Y107.309 E.11843
G1 X117.539 Y104.89 E.12376
G1 X120.828 Y102.67 E.12442
G1 X123.97 Y100.809 E.1145
G1 X124.204 Y101.111 F9000
G1 F1200
G1 X127.646 Y99.358 E.12111
G1 X131.292 Y97.793 E.1244
G1 X134.774 Y96.539 E.11604
G1 X138.401 Y95.486 E.11842
G1 X142.145 Y94.647 E.1203
G1 X145.992 Y94.038 E.12212
G1 X149.752 Y93.682 E.11842
G1 X153.586 Y93.56 E.12027
G1 X157.48 Y93.682 E.12215
G1 X161.24 Y94.038 E.11842
G1 X165.029 Y94.636 E.12027
G1 X168.831 Y95.486 E.12215
G1 X172.514 Y96.558 E.12027
G1 X176.067 Y97.837 E.1184
G1 X179.589 Y99.359 E.1203
G1 X183.008 Y101.099 E.12028
G1 X186.361 Y103.082 E.12214
G1 X189.484 Y105.204 E.11838
G1 X192.517 Y107.554 E.1203
G1 X195.439 Y110.13 E.12214
G1 X198.109 Y112.801 E.11841
G1 X200.647 Y115.677 E.12027
G1 X203.035 Y118.755 E.12215
G1 X205.158 Y121.879 E.11843
G1 X207.112 Y125.18 E.12027
G1 X208.855 Y128.597 E.12027
G1 X210.381 Y132.117 E.12029
G1 X211.7 Y135.782 E.12213
G1 X212.769 Y139.466 E.12027
G1 X213.593 Y143.152 E.11842
G1 X214.202 Y147 E.12215
G1 X214.557 Y150.76 E.11842
G1 X214.68 Y154.594 E.12027
G1 X214.557 Y158.487 E.12212
G1 X214.194 Y162.306 E.12028
G1 X213.593 Y166.095 E.12029
G1 X212.754 Y169.838 E.12027
G1 X211.7 Y173.465 E.11843
G1 X210.381 Y177.13 E.12213
G1 X208.855 Y180.65 E.12029
G1 X207.141 Y184.015 E.11841
G1 X205.158 Y187.368 E.12214
G1 X203.035 Y190.492 E.11843
G1 X200.685 Y193.524 E.12028
G1 X198.109 Y196.446 E.12214
G1 X195.439 Y199.117 E.11841
G1 X192.562 Y201.655 E.12029
G1 X189.532 Y204.008 E.12029
G1 X186.361 Y206.165 E.12025
G1 X183.008 Y208.148 E.12214
G1 X179.589 Y209.888 E.12028
G1 X176.123 Y211.388 E.11841
G1 X172.457 Y212.708 E.12217
G1 X168.773 Y213.776 E.12027
G1 X165.087 Y214.6 E.11842
G1 X161.24 Y215.209 E.12212
G1 X157.421 Y215.569 E.12027
G1 X153.586 Y215.687 E.1203
G1 X149.811 Y215.569 E.11842
G1 X145.992 Y215.209 E.12027
G1 X142.145 Y214.6 E.12212
G1 X138.401 Y213.761 E.1203
G1 X134.774 Y212.708 E.11842
G1 X131.109 Y211.388 E.12214
G1 X127.643 Y209.888 E.11841
G1 X124.224 Y208.148 E.12028
G1 X120.871 Y206.165 E.12214
G1 X117.7 Y204.008 E.12025
G1 X114.715 Y201.693 E.11844
G1 X111.837 Y199.157 E.12027
G1 X111.458 Y198.781 E.01674
G1 X109.082 Y196.403 E.1054
G1 X106.584 Y193.57 E.11843
G1 X104.197 Y190.492 E.12213
G1 X102.042 Y187.318 E.12029
G1 X100.12 Y184.067 E.11841
G1 X98.376 Y180.65 E.12029
G1 X96.851 Y177.13 E.12028
G1 X95.532 Y173.465 E.12213
G1 X94.478 Y169.838 E.11843
G1 X93.639 Y166.095 E.12027
G1 X93.03 Y162.247 E.12215
G1 X92.671 Y158.428 E.12027
G1 X92.552 Y154.653 E.11842
G1 X92.675 Y150.76 E.12212
G1 X93.03 Y147 E.11842
G1 X93.628 Y143.21 E.1203
G1 X94.478 Y139.409 E.12212
G1 X95.55 Y135.726 E.12027
G1 X96.851 Y132.117 E.12029
G1 X98.351 Y128.651 E.11841
G1 X100.091 Y125.232 E.12028
G1 X102.074 Y121.879 E.12214
G1 X104.197 Y118.755 E.11843
G1 X106.547 Y115.723 E.12028
G1 X109.123 Y112.801 E.12214
G1 X111.793 Y110.13 E.11841
G1 X114.67 Y107.592 E.12029
G1 X117.75 Y105.203 E.12222
G1 X121.039 Y102.982 E.12443
G1 X124.151 Y101.139 E.1134
G1 X124.385 Y101.441 F9000
G1 F1200
G1 X127.794 Y99.704 E.11996
G1 X131.441 Y98.139 E.12443
G1 X134.88 Y96.901 E.1146
G1 X138.507 Y95.848 E.11842
G1 X142.227 Y95.015 E.11953
G1 X146.027 Y94.413 E.12063
G1 X149.788 Y94.057 E.11845
G1 X153.598 Y93.937 E.11952
G1 X157.444 Y94.057 E.12065
G1 X161.204 Y94.413 E.11842
G1 X164.97 Y95.008 E.11954
G1 X168.725 Y95.848 E.12065
G1 X172.386 Y96.912 E.11954
G1 X175.973 Y98.205 E.11955
G1 X179.439 Y99.705 E.11841
G1 X182.836 Y101.435 E.11953
G1 X186.149 Y103.393 E.12066
G1 X189.272 Y105.516 E.1184
G1 X192.286 Y107.852 E.11956
G1 X195.172 Y110.397 E.12065
G1 X197.843 Y113.068 E.11844
G1 X200.365 Y115.927 E.11953
G1 X202.723 Y118.967 E.12063
G1 X204.865 Y122.121 E.11954
G1 X206.788 Y125.372 E.11843
G1 X208.535 Y128.8 E.12064
G1 X210.035 Y132.267 E.11844
G1 X211.327 Y135.853 E.11951
G1 X212.401 Y139.548 E.12065
G1 X213.231 Y143.269 E.11954
G1 X213.826 Y147.035 E.11954
G1 X214.184 Y150.831 E.11955
G1 X214.303 Y154.606 E.11842
G1 X214.182 Y158.452 E.12065
G1 X213.822 Y162.247 E.11952
G1 X213.225 Y166.012 E.11952
G1 X212.392 Y169.733 E.11956
G1 X211.338 Y173.36 E.11843
G1 X210.035 Y176.98 E.12063
G1 X208.535 Y180.447 E.11844
G1 X206.805 Y183.844 E.11953
G1 X204.846 Y187.156 E.12065
G1 X202.702 Y190.309 E.11955
G1 X200.387 Y193.293 E.11842
G1 X197.843 Y196.179 E.12063
G1 X195.172 Y198.85 E.11844
G1 X192.313 Y201.372 E.11953
G1 X189.272 Y203.731 E.12067
G1 X186.119 Y205.873 E.11952
G1 X182.868 Y207.795 E.11841
G1 X179.471 Y209.527 E.11956
G1 X175.973 Y211.042 E.11952
G1 X172.352 Y212.346 E.12067
G1 X168.725 Y213.399 E.11842
G1 X165.005 Y214.232 E.11953
G1 X161.204 Y214.834 E.12066
G1 X157.409 Y215.192 E.11952
G1 X153.634 Y215.31 E.11842
G1 X149.788 Y215.189 E.12065
G1 X145.992 Y214.83 E.11955
G1 X142.262 Y214.239 E.11841
G1 X138.541 Y213.408 E.11954
G1 X134.88 Y212.346 E.11952
G1 X131.259 Y211.042 E.12067
G1 X127.793 Y209.542 E.11841
G1 X124.395 Y207.812 E.11956
